X:588
T:Halling från Frändefors
R:Halling
Z:C-G Magnusson, 2008-09-30
O:Frändefors, Dalsland
S:efter Erik Johan Svensson, Frändefors
B:Svenska Låtar Dalsland nr 301
Q:100
M:2/4
L:1/16
K:D
{A}a4 {ga}g2fg | a2{b}a^g e4 | {A}a4 {ga}g2fg | a2{b}a^g e4 |
(cd)ef (gf)ec | d2d2 c2c2 | d2ef {fg}f2ec | e2Bc A4 |
d2ef (gf)ec | d2d2 c2c2 | d2ef {fg}f2ec | d4 z4 :|
(:musicend:)

(:music:)
